X: 680
T: Yibane hamikdash
O: Trad Ashekazi
M: 2/4
L: 1/8
K: Dm
|: "Dm"F D2 F | "Am"ED C2 | "C"CG FE | "Dm"D2 D2 \
|  "Dm"F D2 F | "Am"ED C2 | "C"CG FE | "Dm"D2 D2 :|
|: "Dm"z F2 F | "Dm"A2 "Gm"G2 | "Dm"F2 A2 | "Gm"G4 \
|  "A7"z G2 G | "A7"A2 G2 |1 "Dm"F2 "A7"EG | "Dm"F4 :|2 "Dm"F2 "A7"E2 | "Dm"D4 |]



